X: 4114
T: FARNIE HOUSE
R: Reel.
%R: reel
B: James Kerr "Merry Melodies" v.4 p.14 #114
Z: 2016 John Chambers <jc:trillian.mit.edu>
M: C|
L: 1/8
K: G
|:\
GABc d2(Bc) | dBgd bgdB |\
GABc d2(Bd) | cAaf dcBA ::\
(BG)GG (DG)GG |
(BG)GB (de)dc |\
[1 (BG)GG (DG)GG | FGAB cedc :|\
[2 Bdgf edcB | AGFE DcBA |]

%%sep 1 1 500
%%sep 1 1 500

